dist/svgs/team-building.svg

<svg xmlns="http://www.w3.org/2000/svg" viewBox="0 0 512 512"><path d="M0 299q0-10 6-16t15-6h22v235H21q-9 0-15-6t-6-15V299zM405 0q10 0 16 6t6 15v470q0 9-6 15t-16 6H277v-85h-42v85H107q-10 0-16-6t-6-15V21q0-9 6-15t16-6h298zM213 320h-64v43h64v-43zm0-85h-64v42h64v-42zm0-86h-64v43h64v-43zm0-85h-64v43h64V64zm150 256h-64v43h64v-43zm0-85h-64v42h64v-42zm0-86h-64v43h64v-43zm0-85h-64v43h64V64zm128 213q9 0 15 6t6 16v192q0 9-6 15t-15 6h-22V277h22z"/></svg>

<?xml version="1.0" encoding="UTF-8" standalone="no"?><svg   xmlns:svg="http://www.w3.org/2000/svg"   xmlns="http://www.w3.org/2000/svg"   version="1.1"   width="512"   height="512"   viewBox="0 0 512 512">  <path     d="M0 299Q0 289 6 283T21 277H43V491V512H21Q12 512 6 506T0 491V299zM405 0Q415 0 421 6T427 21V491Q427 500 421 506T405 512H277V427H235V512H107Q97 512 91 506T85 491V21Q85 12 91 6T107 0H405zM213 320H149V363H213V320zM213 235H149V277H213V235zM213 149H149V192H213V149zM213 64H149V107H213V64zM363 320H299V363H363V320zM363 235H299V277H363V235zM363 149H299V192H363V149zM363 64H299V107H363V64zM491 277Q500 277 506 283T512 299V491Q512 500 506 506T491 512H469V491V277H491z"     id="team-building" /></svg>
